X:1
T:Prélude
T:Präludien
T:2 Préludes Larghetto & Largo 
T:Johann Georg Herzog (1822-1909)
T:from "Orgel-Kompositionen aus alter und neuer Zeit" No. 115 & 118 (1908) Arrangement for Flute, Violin, 2 Celli 
T:Arrangement by Felix Scharpf
T:twoflutes 2020 / Felix Scharpf / https://imslp.org/images/2/23/Herzog-Johann-Georg.jpg
T:twoflutes 2020 / Felix Scharpf / https://imslp.org/images/2/23/Herzog-Johann-Georg.jpg
T:twoflutes 2020 / Felix Scharpf / https://imslp.org/images/2/23/Herzog-Johann-Georg.jpg
T:twoflutes 2020 / Felix Scharpf / https://imslp.org/images/2/23/Herzog-Johann-Georg.jpg
T:twoflutes 2020 / Felix Scharpf / https://imslp.org/images/2/23/Herzog-Johann-Georg.jpg
T:twoflutes 2020 / Felix Scharpf / https://imslp.org/images/2/23/Herzog-Johann-Georg.jpg
C:Herzog, Johann Georg (1822-1909)
Z:twoflutes 2020 / Felix Scharpf / https://imslp.org/images/2/23/Herzog-Johann-Georg.jpg
%%score [ 1 2 3 4 ]
L:1/8
Q:1/4=120
M:4/4
K:C
V:1 treble nm="Flöte" snm="Fl."
V:2 treble nm="Violine" snm="Vl."
V:3 bass nm="Violoncello 1" snm="Vc. 1"
V:4 bass nm="Violoncello 2" snm="Vc. 2"
V:1
!mp!"^1. Larghetto (No. 115)" (E4 F2 G2 | A2 c2 B2 A2 | G2 A2 F4 | E2)!<(! G2 (c4 | %4
 B2 A2 ^G2 A2!<)! |!mf! ^G4!>(! =G4 | F4 D4!>)! |!mp! E8) | z8 | z8 |!mp! (e4 B2 d2 | %11
 c2 ^G2 A2 F2 | E4) (G2 _B2 | A4 d4) | (^c2 d2 e2 G2 | F6 E2 | D2)"_cresc." (GA G2 F2 | %17
 E2) (A2 c4 | B2)!mf! (g2 d2 f2 | e4 d4 | ^c2)!mf!!<(! (a2 e2 g2!<)! | f6)"_dim." (g2 | %22
 a2 g2 f2 e2 | d6) (f2 | e2 d2 c2 B2 | c8) |!mp! (B4 c2 _B2 |!>(! A4 G4 | F6 G2 | F4 E2 F2!>)! | %30
!p! F4) z4 | z8 |!mf!"_cresc." (E4 F2 G2 | A2 c2 B2 A2 | ^G2) (^d2 e2 B2 | c6 A2 | c4 G2 F2 | %37
 E4 D4 |[Q:1/4=80]!mf! !fermata!E8)[Q:1/4=60][Q:1/4=50][Q:1/4=40] |] %39
[K:C]"^2. Largo (No. 118) \nSerioso\n"!p![Q:1/4=115] c4"_cresc." c2 c2 | (d4 B4) | (e4 c4 | %42
 B4 A4) |!mp! a4"_cresc." a2 a2 | (^g4 e4) | g4 g2 g2 | (^f4 d4) | f4 (e2 a2) | g4 e4 | (f8 | %50
 e4)!mf! (A2 B2) | (c4 d4 | e8- | e2) e2 (g2 ^f2) | (b4 a4 | g8 | ^f8 | e2) z2!<(! z4 | z8 | z8 | %60
 A8!<)! |!mf! ^G6[Q:1/4=60] !fermata!z2 |!p![Q:1/4=115] c4!<(! c2 c2 | (d4 B4) | (e4 c4)!<)! | %65
!mf! (a2 g2 f2 e2 | d2 c2 B2 A2) | e8 |!f!!>(! ^G8 | A8-!>)![Q:1/4=80][Q:1/4=70] | %70
!pp! !fermata!A8 |] %71
V:2
!mp! (B,4 D2 E2 | E6 CD | E2 C4 B,2 | C2)!<(! z2 z2 (E2 | D8!<)! |!mf! E8 | D4 A,4 |!mp! B,8) | %8
 z8 | z8 | z4 (E4- | E2 B,2 C2 D2 | ^C8) | (D2 E2 F2 G2 | A4 E4 | D6 C2 | B,4)"_cresc." D4 | %17
 (C3 D E2 ^F2 | G2) z2 z4 | z2 (c2 _B4 | A8 | A6)"_dim." (d2 | ^c2 e2 d2 G2 | F2 G2 F4) | G8 | %25
 E6!mp! ^F2 | ^G4 =G4 |!>(! F4 E4 | D8 | C8-!>)! |!p! C4!mf!!<(! A,2 ^C2 | D4 (B,2 CD) | %32
 (E2 C2 D2 E2 | E6- E^D | E2) z2 z4 | z2 (^G2 A2 ^D2!<)! | E6 D2 | C4)!mf! (A,2 B,2 | %38
"^rit." C2 B,A, !fermata!B,4) |][K:C]!p! A4"_cresc." A2 A2 | (A4 ^G4) | (A8- | A2 ^G2 E4) | %43
!mp! c4"_cresc." c2 c2 | (B4 A4) | _B4 (B2 A2) | (A4 B4) | c8- | c8- | c2 (B2 A2 B2 | c4) z4 | %51
 z2 (A4 G2 | G6 A2 | B4) c4 | B8- | B8- | B8 | G2!mp! E2!<(! (G2 F2) | (d2 B2) (F2 E2) | %59
 (c2 A2) (^D2 E2) | z2 F2 (C2 D2)!<)! |!mf! E6 !fermata!z2 |!p! E4!<(! A2 A2 | (A4 ^G4) | A8- | %65
 A4 z4 | A8- | A8!<)! |!mf!!>(! E8- | E2"^poco rit." (F2 E2 F2!>)! |!pp! !fermata!E8) |] %71
V:3
!mp! (G,4 A,2 C2- | C2 A,2 G,2 A,2 | C2 A,4 G,F, | G,2)!<(! z2 (A,4- | A,8!<)! | %5
!mf! B,4!>(! C2 B,2 | A,8!>)! |!mp! ^G,8) |!mf! (E4 B,2 D2 | C2 ^G,2 A,2 F,2 | E,2 ^F,2 ^G,4) | %11
 z8 | A,8- | A,6 (D2 | E4 ^C2 A,2 | A,4 G,4- | G,8- | G,2) E,2 A,2 C2 | D2 z2 z4 | %19
 z2!mp! (G2 D2 F2 | E4 ^C4 | D2) (^C2 D2"_dim." _B,2 | A,8- | A,4) (D2 C2 | B,4) (E2 D2 | %25
 C6)!mp! (A,C | E6 D2 |!>(! C6 _B,2 | A,4 _B,4 | A,4 G,4!>)! |!p! A,4)!<(! z4 | z4!mf! (G,2 A,B,) | %32
 (C2 G,2 A,2 C2- | C2 A,2 G,2 A,2 | B,2) z2 z2 (^D2 | E2 B,2 C4!<)! | B,4) (C2 A,2 | A,8- | %38
!mf! A,2 ^G,^F, !fermata!G,4) |][K:C][K:alto]!p! E4"_cresc." E2 E2 | F4 (E4- | E8- | E2 B,2 C4) | %43
!mp! E4"_cresc." E2 E2 | (E4 C4) | ^C4 (C2 E2) | (D4 B,4) | A4 (G2 F2) | E4 C4 | (D8 | C4) z4 | %51
 (A,4 B,4 | C8 | B,4) A4 | G4 ^F4 | E8- | E4 (^D4 | E2) z2!mp!!<(! (B,2 A,2) | ^G,4 D4 | C6 B,2 | %60
 A,8!<)! |!mf! B,6 !fermata!z2 |!p! A,4!<(! (E2 F2) | (F4 E4- | E8) | D4 (A2 G2 | F2 E2 D2 F2) | %67
 C8!<)! |!mf!!>(! B,4 D4 | C2 (D2 C2 D2!>)! |!pp! !fermata!C8) |] %71
V:4
!mp! (E,4 D,2 C,B,, | A,,2 A,2 E,2 F,2 | C,2 F,2 D,4 | C,2)!<(! z2 z2 (A,,2 | F,8!<)! | %5
!mf! E,4!>(! C,4 | D,4 F,4!>)! |!mp! E,8) | z8 | z8 | z8 | z8 | z2!f! (A,2 E,2 G,2 | %13
 F,2 ^C,2 D,2 _B,,2 | A,,8) | (D,2 C,2 B,,2 C,2 | G,,4 B,,4 | C,4) z2 A,2 | G,8- | G,8 | A,8 | %21
 D,6 z2 | z8 |"_dim." (D,2 E,2 D,2 _A,2 | G,8) | (A,2 ^G,2 A,2 ^D,2 | E,8) | %27
!mp!!>(! (F,2 A,,2 C,4 | D,4 _B,,4 | C,8!>)! |!p! F,,4)!<(! z4 | z8 | z2!mf! (E,2 D,2 C,2 | %33
 A,,2) (A,2 E,2 F,2 | E,8- | E,8-!<)! | E,4) (C,2 D,2 | A,,4 F,,4 | !fermata!E,,8) |] %39
[K:C]!p! A,4"_cresc." A,2 A,2 | (D4 E4) | (B,4 A,4 | E,4 A,4) |!mp! A,,4"_cresc." C,2 A,,2 | %44
 (E,4 A,4) | z4 z2 ^C,2 | (D,4 G,4) | z4 z2 F,2 | G,8- | G,8 | C,4 z4 | z8 | z4 (E,2 ^F,2) | %53
 G,4 A,4 | B,8 | z4 (E,2 G,2) | B,8 | E,8- | E,8 |!<(! A,6 G,2 | F,8!<)! |!mf! E,6 !fermata!z2 | %62
!p! A,,4!<(! (A,2 F,2) | (D,4 E,4) | (C4 A,4) | F,8- | F,8 | E,8-!<)! |!mf!!>(! E,8 | A,,8-!>)! | %70
!pp! !fermata!A,,8 |] %71

